X: 40015
T: Three Scones Of Boxty, The
R: reel
M: 4/4
K: Amixolydian
EF|:GFED cBAc|BAGB A2EF|GFED cBAc|1 BAGE D2EF:|2 BAGE D4||
cded cA~A2|BAGB A3 B|1 cded cA~A2|BAGE D3 B:|2 cdef gfed|cAGE D4||

